austria/municipalities/41124.svg

<?xml version="1.0" encoding="UTF-8"?>
<!DOCTYPE svg PUBLIC "-//W3C//DTD SVG 1.1//EN" "http://www.w3.org/Graphics/SVG/1.1/DTD/svg11.dtd">
<svg xmlns="http://www.w3.org/2000/svg" version="1.1" width="166px" height="207px" style="shape-rendering:geometricPrecision; text-rendering:geometricPrecision; image-rendering:optimizeQuality; fill-rule:evenodd; clip-rule:evenodd" xmlns:xlink="http://www.w3.org/1999/xlink">
<g><path style="opacity:1" fill="#000000" d="M -0.5,-0.5 C 54.8333,-0.5 110.167,-0.5 165.5,-0.5C 165.5,43.8333 165.5,88.1667 165.5,132.5C 157.932,172.068 134.599,196.735 95.5,206.5C 86.8333,206.5 78.1667,206.5 69.5,206.5C 30.0061,196.67 6.67281,171.67 -0.5,131.5C -0.5,87.5 -0.5,43.5 -0.5,-0.5 Z"/></g>
<g><path style="opacity:1" fill="#fafafa" d="M 6.5,6.5 C 6.7352,5.90326 7.2352,5.56993 8,5.5C 9.81138,6.07786 11.6447,6.57786 13.5,7C 48.6334,39.466 83.1334,72.6326 117,106.5C 116.628,108.92 115.295,110.92 113,112.5C 103.333,102.833 93.6667,93.1667 84,83.5C 83.3333,84.1667 83.3333,84.8333 84,85.5C 93.4096,94.4062 102.243,103.74 110.5,113.5C 109.289,117.462 107.289,118.129 104.5,115.5C 72.511,81.3431 40.6777,47.0098 9,12.5C 8.15532,10.3885 7.32198,8.3885 6.5,6.5 Z"/></g>
<g><path style="opacity:1" fill="#000000" d="M 50.5,49.5 C 48.9719,49.4827 48.4719,48.816 49,47.5C 49.7172,48.0442 50.2172,48.7109 50.5,49.5 Z"/></g>
<g><path style="opacity:1" fill="#000000" d="M 50.5,49.5 C 51.2891,49.7828 51.9558,50.2828 52.5,51C 51.184,51.5281 50.5173,51.0281 50.5,49.5 Z"/></g>
<g><path style="opacity:1" fill="#000000" d="M 58.5,57.5 C 56.9719,57.4827 56.4719,56.816 57,55.5C 57.7172,56.0442 58.2172,56.7109 58.5,57.5 Z"/></g>
<g><path style="opacity:1" fill="#000000" d="M 58.5,57.5 C 59.5,57.8333 60.1667,58.5 60.5,59.5C 59.1667,59.5 58.5,58.8333 58.5,57.5 Z"/></g>
<g><path style="opacity:1" fill="#000000" d="M 60.5,59.5 C 61.5,59.8333 62.1667,60.5 62.5,61.5C 61.1667,61.5 60.5,60.8333 60.5,59.5 Z"/></g>
<g><path style="opacity:1" fill="#000000" d="M 62.5,61.5 C 63.2891,61.7828 63.9558,62.2828 64.5,63C 63.184,63.5281 62.5173,63.0281 62.5,61.5 Z"/></g>
<g><path style="opacity:1" fill="#000000" d="M 71.5,71.5 C 68.6052,69.7977 66.7719,67.4644 66,64.5C 68.4536,66.4412 70.287,68.7746 71.5,71.5 Z"/></g>
<g><path style="opacity:1" fill="#000000" d="M 71.5,71.5 C 72.8333,71.5 73.5,72.1667 73.5,73.5C 72.5,73.1667 71.8333,72.5 71.5,71.5 Z"/></g>
<g><path style="opacity:1" fill="#000000" d="M 73.5,73.5 C 75.0281,73.5173 75.5281,74.184 75,75.5C 74.2828,74.9558 73.7828,74.2891 73.5,73.5 Z"/></g>
<g><path style="opacity:1" fill="#fefffe" d="M 124.5,111.5 C 123.167,111.5 122.5,112.167 122.5,113.5C 121.167,113.5 120.5,114.167 120.5,115.5C 119.167,115.5 118.5,116.167 118.5,117.5C 117.167,117.5 116.5,118.167 116.5,119.5C 115.167,119.5 114.5,120.167 114.5,121.5C 113.167,121.5 112.5,122.167 112.5,123.5C 109.244,125.25 106.411,127.583 104,130.5C 103.483,138.7 99.3166,141.866 91.5,140C 88.1779,134.922 89.1779,130.922 94.5,128C 96.9519,127.71 99.2852,127.044 101.5,126C 109.667,117.833 117.833,109.667 126,101.5C 127.464,97.4444 129.297,93.6111 131.5,90C 138.699,87.3521 141.866,89.8521 141,97.5C 139.188,101.5 136.022,103.667 131.5,104C 128.6,106.063 126.267,108.563 124.5,111.5 Z"/></g>
<g><path style="opacity:1" fill="#000000" d="M 124.5,111.5 C 124.167,112.5 123.5,113.167 122.5,113.5C 122.5,112.167 123.167,111.5 124.5,111.5 Z"/></g>
<g><path style="opacity:1" fill="#fefffe" d="M 124.5,111.5 C 125.586,111.62 126.253,112.287 126.5,113.5C 126.248,115.073 125.582,116.406 124.5,117.5C 123.5,117.833 122.833,118.5 122.5,119.5C 121.5,119.833 120.833,120.5 120.5,121.5C 119.5,121.833 118.833,122.5 118.5,123.5C 117.5,123.833 116.833,124.5 116.5,125.5C 112.984,128.411 111.651,127.745 112.5,123.5C 113.5,123.167 114.167,122.5 114.5,121.5C 115.5,121.167 116.167,120.5 116.5,119.5C 117.5,119.167 118.167,118.5 118.5,117.5C 119.5,117.167 120.167,116.5 120.5,115.5C 121.5,115.167 122.167,114.5 122.5,113.5C 123.5,113.167 124.167,112.5 124.5,111.5 Z"/></g>
<g><path style="opacity:1" fill="#000000" d="M 122.5,113.5 C 122.167,114.5 121.5,115.167 120.5,115.5C 120.5,114.167 121.167,113.5 122.5,113.5 Z"/></g>
<g><path style="opacity:1" fill="#000000" d="M 120.5,115.5 C 120.167,116.5 119.5,117.167 118.5,117.5C 118.5,116.167 119.167,115.5 120.5,115.5 Z"/></g>
<g><path style="opacity:1" fill="#000000" d="M 118.5,117.5 C 118.167,118.5 117.5,119.167 116.5,119.5C 116.5,118.167 117.167,117.5 118.5,117.5 Z"/></g>
<g><path style="opacity:1" fill="#000000" d="M 124.5,117.5 C 124.5,118.833 123.833,119.5 122.5,119.5C 122.833,118.5 123.5,117.833 124.5,117.5 Z"/></g>
<g><path style="opacity:1" fill="#000000" d="M 116.5,119.5 C 116.167,120.5 115.5,121.167 114.5,121.5C 114.5,120.167 115.167,119.5 116.5,119.5 Z"/></g>
<g><path style="opacity:1" fill="#000000" d="M 122.5,119.5 C 122.5,120.833 121.833,121.5 120.5,121.5C 120.833,120.5 121.5,119.833 122.5,119.5 Z"/></g>
<g><path style="opacity:1" fill="#fcfcfc" d="M 132.5,123.5 C 131.5,123.833 130.833,124.5 130.5,125.5C 129.5,125.833 128.833,126.5 128.5,127.5C 127.5,127.833 126.833,128.5 126.5,129.5C 125.5,129.833 124.833,130.5 124.5,131.5C 123.5,131.833 122.833,132.5 122.5,133.5C 121.448,133.649 120.448,133.483 119.5,133C 118.183,131.233 116.516,129.899 114.5,129C 115.823,128.184 116.489,127.017 116.5,125.5C 117.833,125.5 118.5,124.833 118.5,123.5C 119.833,123.5 120.5,122.833 120.5,121.5C 121.833,121.5 122.5,120.833 122.5,119.5C 123.833,119.5 124.5,118.833 124.5,117.5C 126.044,117.297 127.378,116.63 128.5,115.5C 129.5,115.833 130.167,116.5 130.5,117.5C 127.016,121.485 123.349,125.318 119.5,129C 120.167,129.667 120.833,129.667 121.5,129C 124.682,125.651 128.015,122.484 131.5,119.5C 133.642,120.437 133.976,121.77 132.5,123.5 Z"/></g>
<g><path style="opacity:1" fill="#000000" d="M 114.5,121.5 C 114.167,122.5 113.5,123.167 112.5,123.5C 112.5,122.167 113.167,121.5 114.5,121.5 Z"/></g>
<g><path style="opacity:1" fill="#000000" d="M 120.5,121.5 C 120.5,122.833 119.833,123.5 118.5,123.5C 118.833,122.5 119.5,121.833 120.5,121.5 Z"/></g>
<g><path style="opacity:1" fill="#000000" d="M 118.5,123.5 C 118.5,124.833 117.833,125.5 116.5,125.5C 116.833,124.5 117.5,123.833 118.5,123.5 Z"/></g>
<g><path style="opacity:1" fill="#000000" d="M 132.5,123.5 C 132.5,124.833 131.833,125.5 130.5,125.5C 130.833,124.5 131.5,123.833 132.5,123.5 Z"/></g>
<g><path style="opacity:1" fill="#fefffe" d="M 132.5,123.5 C 133.995,123.415 134.995,124.081 135.5,125.5C 132.737,128.252 130.403,131.252 128.5,134.5C 127.167,134.5 126.5,135.167 126.5,136.5C 125.167,136.5 123.833,136.5 122.5,136.5C 122.5,135.5 122.5,134.5 122.5,133.5C 123.833,133.5 124.5,132.833 124.5,131.5C 125.833,131.5 126.5,130.833 126.5,129.5C 127.833,129.5 128.5,128.833 128.5,127.5C 129.833,127.5 130.5,126.833 130.5,125.5C 131.833,125.5 132.5,124.833 132.5,123.5 Z"/></g>
<g><path style="opacity:1" fill="#000000" d="M 130.5,125.5 C 130.5,126.833 129.833,127.5 128.5,127.5C 128.833,126.5 129.5,125.833 130.5,125.5 Z"/></g>
<g><path style="opacity:1" fill="#000000" d="M 128.5,127.5 C 128.5,128.833 127.833,129.5 126.5,129.5C 126.833,128.5 127.5,127.833 128.5,127.5 Z"/></g>
<g><path style="opacity:1" fill="#000000" d="M 126.5,129.5 C 126.5,130.833 125.833,131.5 124.5,131.5C 124.833,130.5 125.5,129.833 126.5,129.5 Z"/></g>
<g><path style="opacity:1" fill="#fefffe" d="M -0.5,131.5 C 6.67281,171.67 30.0061,196.67 69.5,206.5C 46.1667,206.5 22.8333,206.5 -0.5,206.5C -0.5,181.5 -0.5,156.5 -0.5,131.5 Z"/></g>
<g><path style="opacity:1" fill="#000000" d="M 124.5,131.5 C 124.5,132.833 123.833,133.5 122.5,133.5C 122.833,132.5 123.5,131.833 124.5,131.5 Z"/></g>
<g><path style="opacity:1" fill="#f2f2f2" d="M 126.5,136.5 C 127.833,136.5 128.5,135.833 128.5,134.5C 131.152,131.863 134.152,129.53 137.5,127.5C 138.429,128.689 138.762,130.022 138.5,131.5C 140.346,131.222 141.68,131.889 142.5,133.5C 139.683,136.818 136.683,139.985 133.5,143C 132.5,143.667 131.5,143.667 130.5,143C 129.692,141.294 128.359,140.461 126.5,140.5C 126.5,139.167 126.5,137.833 126.5,136.5 Z"/></g>
<g><path style="opacity:1" fill="#fefffe" d="M 165.5,132.5 C 165.5,157.167 165.5,181.833 165.5,206.5C 142.167,206.5 118.833,206.5 95.5,206.5C 134.599,196.735 157.932,172.068 165.5,132.5 Z"/></g>
<g><path style="opacity:1" fill="#000000" d="M 128.5,134.5 C 128.5,135.833 127.833,136.5 126.5,136.5C 126.5,135.167 127.167,134.5 128.5,134.5 Z"/></g>
<g><path style="opacity:1" fill="#fefffe" d="M 143.5,134.5 C 150.314,134.49 152.814,137.823 151,144.5C 148.177,151.007 143.344,153.507 136.5,152C 134.554,150.607 133.221,148.774 132.5,146.5C 136.16,142.506 139.827,138.506 143.5,134.5 Z"/></g>
<g><path style="opacity:1" fill="#000000" d="M 143.5,137.5 C 145.089,136.379 146.756,136.546 148.5,138C 149.554,139.388 149.72,140.888 149,142.5C 148.536,139.348 146.703,137.682 143.5,137.5 Z"/></g>
<g><path style="opacity:1" fill="#fe9900" d="M 79.5,142.5 C 95.239,143.082 105.739,150.748 111,165.5C 115.643,153.623 123.809,150.123 135.5,155C 141.675,160.865 143.842,168.032 142,176.5C 113.686,205.023 81.1863,210.857 44.5,194C 36.172,188.909 28.672,182.742 22,175.5C 20.0102,165.318 23.5102,157.818 32.5,153C 43.6672,151.825 50.8338,156.659 54,167.5C 57.4585,153.873 65.9585,145.54 79.5,142.5 Z"/></g>
</svg>

<svg xmlns="http://www.w3.org/2000/svg" width="166" height="207" style="shape-rendering:geometricPrecision;text-rendering:geometricPrecision;image-rendering:optimizeQuality;fill-rule:evenodd;clip-rule:evenodd"><path style="opacity:1" d="M-.5-.5h166v133c-7.568 39.568-30.901 64.235-70 74h-26c-39.494-9.83-62.827-34.83-70-75V-.5z"/><path style="opacity:1" fill="#fafafa" d="M6.5 6.5c.235-.597.735-.93 1.5-1A66.99 66.99 0 0 0 13.5 7 3639.16 3639.16 0 0 1 117 106.5c-.372 2.42-1.705 4.42-4 6l-29-29c-.667.667-.667 1.333 0 2a348.164 348.164 0 0 1 26.5 28c-1.211 3.962-3.211 4.629-6 2A14045.812 14045.812 0 0 1 9 12.5a217.163 217.163 0 0 0-2.5-6z"/><path style="opacity:1" d="M50.5 49.5c-1.528-.017-2.028-.684-1.5-2 .717.544 1.217 1.21 1.5 2zM50.5 49.5c.79.283 1.456.783 2 1.5-1.316.528-1.983.028-2-1.5zM58.5 57.5c-1.528-.017-2.028-.684-1.5-2 .717.544 1.217 1.21 1.5 2zM58.5 57.5c1 .333 1.667 1 2 2-1.333 0-2-.667-2-2zM60.5 59.5c1 .333 1.667 1 2 2-1.333 0-2-.667-2-2zM62.5 61.5c.79.283 1.456.783 2 1.5-1.316.528-1.983.028-2-1.5zM71.5 71.5c-2.895-1.702-4.728-4.036-5.5-7 2.454 1.941 4.287 4.275 5.5 7zM71.5 71.5c1.333 0 2 .667 2 2-1-.333-1.667-1-2-2zM73.5 73.5c1.528.017 2.028.684 1.5 2-.717-.544-1.217-1.21-1.5-2z"/><path style="opacity:1" fill="#fefffe" d="M124.5 111.5c-1.333 0-2 .667-2 2-1.333 0-2 .667-2 2-1.333 0-2 .667-2 2-1.333 0-2 .667-2 2-1.333 0-2 .667-2 2-1.333 0-2 .667-2 2-3.256 1.75-6.089 4.083-8.5 7-.517 8.2-4.683 11.366-12.5 9.5-3.322-5.078-2.322-9.078 3-12a22.507 22.507 0 0 0 7-2l24.5-24.5a63.257 63.257 0 0 1 5.5-11.5c7.199-2.648 10.366-.148 9.5 7.5-1.812 4-4.978 6.167-9.5 6.5-2.9 2.063-5.233 4.563-7 7.5z"/><path style="opacity:1" d="M124.5 111.5c-.333 1-1 1.667-2 2 0-1.333.667-2 2-2z"/><path style="opacity:1" fill="#fefffe" d="M124.5 111.5c1.086.12 1.753.787 2 2-.252 1.573-.918 2.906-2 4-1 .333-1.667 1-2 2-1 .333-1.667 1-2 2-1 .333-1.667 1-2 2-1 .333-1.667 1-2 2-3.516 2.911-4.849 2.245-4-2 1-.333 1.667-1 2-2 1-.333 1.667-1 2-2 1-.333 1.667-1 2-2 1-.333 1.667-1 2-2 1-.333 1.667-1 2-2 1-.333 1.667-1 2-2z"/><path style="opacity:1" d="M122.5 113.5c-.333 1-1 1.667-2 2 0-1.333.667-2 2-2zM120.5 115.5c-.333 1-1 1.667-2 2 0-1.333.667-2 2-2zM118.5 117.5c-.333 1-1 1.667-2 2 0-1.333.667-2 2-2zM124.5 117.5c0 1.333-.667 2-2 2 .333-1 1-1.667 2-2zM116.5 119.5c-.333 1-1 1.667-2 2 0-1.333.667-2 2-2zM122.5 119.5c0 1.333-.667 2-2 2 .333-1 1-1.667 2-2z"/><path style="opacity:1" fill="#fcfcfc" d="M132.5 123.5c-1 .333-1.667 1-2 2-1 .333-1.667 1-2 2-1 .333-1.667 1-2 2-1 .333-1.667 1-2 2-1 .333-1.667 1-2 2a4.934 4.934 0 0 1-3-.5 12.472 12.472 0 0 0-5-4c1.323-.816 1.989-1.983 2-3.5 1.333 0 2-.667 2-2 1.333 0 2-.667 2-2 1.333 0 2-.667 2-2 1.333 0 2-.667 2-2 1.544-.203 2.878-.87 4-2 1 .333 1.667 1 2 2a178.482 178.482 0 0 1-11 11.5c.667.667 1.333.667 2 0a134.072 134.072 0 0 1 10-9.5c2.142.937 2.476 2.27 1 4z"/><path style="opacity:1" d="M114.5 121.5c-.333 1-1 1.667-2 2 0-1.333.667-2 2-2zM120.5 121.5c0 1.333-.667 2-2 2 .333-1 1-1.667 2-2zM118.5 123.5c0 1.333-.667 2-2 2 .333-1 1-1.667 2-2zM132.5 123.5c0 1.333-.667 2-2 2 .333-1 1-1.667 2-2z"/><path style="opacity:1" fill="#fefffe" d="M132.5 123.5c1.495-.085 2.495.581 3 2-2.763 2.752-5.097 5.752-7 9-1.333 0-2 .667-2 2h-4v-3c1.333 0 2-.667 2-2 1.333 0 2-.667 2-2 1.333 0 2-.667 2-2 1.333 0 2-.667 2-2 1.333 0 2-.667 2-2z"/><path style="opacity:1" d="M130.5 125.5c0 1.333-.667 2-2 2 .333-1 1-1.667 2-2zM128.5 127.5c0 1.333-.667 2-2 2 .333-1 1-1.667 2-2zM126.5 129.5c0 1.333-.667 2-2 2 .333-1 1-1.667 2-2z"/><path style="opacity:1" fill="#fefffe" d="M-.5 131.5c7.173 40.17 30.506 65.17 70 75h-70v-75z"/><path style="opacity:1" d="M124.5 131.5c0 1.333-.667 2-2 2 .333-1 1-1.667 2-2z"/><path style="opacity:1" fill="#f2f2f2" d="M126.5 136.5c1.333 0 2-.667 2-2 2.652-2.637 5.652-4.97 9-7 .929 1.189 1.262 2.522 1 4 1.846-.278 3.18.389 4 2a120.496 120.496 0 0 1-9 9.5c-1 .667-2 .667-3 0-.808-1.706-2.141-2.539-4-2.5v-4z"/><path style="opacity:1" fill="#fefffe" d="M165.5 132.5v74h-70c39.099-9.765 62.432-34.432 70-74z"/><path style="opacity:1" d="M128.5 134.5c0 1.333-.667 2-2 2 0-1.333.667-2 2-2z"/><path style="opacity:1" fill="#fefffe" d="M143.5 134.5c6.814-.01 9.314 3.323 7.5 10-2.823 6.507-7.656 9.007-14.5 7.5-1.946-1.393-3.279-3.226-4-5.5l11-12z"/><path style="opacity:1" d="M143.5 137.5c1.589-1.121 3.256-.954 5 .5 1.054 1.388 1.22 2.888.5 4.5-.464-3.152-2.297-4.818-5.5-5z"/><path style="opacity:1" fill="#fe9900" d="M79.5 142.5c15.739.582 26.239 8.248 31.5 23 4.643-11.877 12.809-15.377 24.5-10.5 6.175 5.865 8.342 13.032 6.5 21.5-28.314 28.523-60.814 34.357-97.5 17.5-8.328-5.091-15.828-11.258-22.5-18.5-1.99-10.182 1.51-17.682 10.5-22.5 11.167-1.175 18.334 3.659 21.5 14.5 3.459-13.627 11.959-21.96 25.5-25z"/></svg>
